symbols/web/back_hand/materialsymbolssharp/back_hand_gradN25fill1_48px.svg

<svg xmlns="http://www.w3.org/2000/svg" height="48" width="48"><path d="M26 47.65q-5.45 0-9.5-2.95t-5.8-7.3L4.35 21.45l5.3-2.2L13.8 29.9h1.4V4.4h5.2v19.45h1.9V.3h5.25v23.55h1.95V3.2h5.25v20.65h1.95V9.2h5.25v23.05q0 6.85-4.575 11.125T26 47.65Z"/></svg>

<svg xmlns="http://www.w3.org/2000/svg" height="48" width="48"><path d="M26 47.65Q20.55 47.65 16.5 44.7Q12.45 41.75 10.7 37.4L4.35 21.45L9.65 19.25L13.8 29.9H15.2V4.4H20.4V23.85H22.3V0.3H27.55V23.85H29.5V3.2H34.75V23.85H36.7V9.2H41.95V32.25Q41.95 39.1 37.375 43.375Q32.8 47.65 26 47.65Z"/></svg>
